static/assets/template/assets/img/icons/essential/detailed/Add_to_cart_2.svg

<svg height="102" viewBox="0 0 150 102" width="150" xmlns="http://www.w3.org/2000/svg"><g fill="none" fill-rule="evenodd" stroke-linecap="round" stroke-linejoin="round" stroke-width="3" transform="translate(2 2)"><g transform="translate(0 13)"><path d="m21.7 76.7h30.4c.4 1.2 1.6 2.1 3.1 2.1h16.2c1.4 0 2.6-.9 3.1-2.1h52v3.3c0 3-2.6 5.4-5.7 5.4h-114.9c-3.2 0-5.7-2.4-5.7-5.4v-3.3h6.5" fill-rule="nonzero"/><path d="m14.7 76.7h.4" fill-rule="nonzero"/><path d="m60.1.7h43.4"/><g fill-rule="nonzero"><path d="m6.7 76.7v-71.8c0-2.3 1.9-4.1 4.1-4.1h40.1"/><path d="m120 64.7v12h-91.6"/></g></g><g transform="translate(15 31)"><path d="m12.7 30.3v-8.6c0-1.6 0-3.3 0-5-5.6 2.7-5.8 3.2-7 1.8-1.7-2-3.3-4-4.9-6-.8-1-.8-1.7.2-2.5 3.5-2.9 7-5.9 10.6-8.8.6-.5 1.3-.8 2.2-.8 8.2.1 8.7-.6 9 1.9.3 2.8 2.5 4.7 5.3 4.7 2.5-.1 4.6-2.1 4.8-4.8.1-1.3.5-1.7 1.8-1.7h7.7c.5 0 1.1.3 1.5.6 3.6 3 7.2 6 10.8 9 1 .8 1 1.5.2 2.5-1.7 2-3.3 4-5 6-1.1 1.3-1.3.9-7-1.8v25.4c0 1.8-.4 2.2-2.3 2.2-8.6 0-17.1 0-25.7 0-1.8 0-2.2-.4-2.2-2.2 0-1.5 0-3 0-4.5" fill="#bad8ff" fill-rule="nonzero"/><path d="m31.9 14.2h7.4"/></g><path d="m76.4 40.7h19.6"/><path d="m76.4 54.7h17.6"/><path d="m76.4 68.7h7.2"/><path d="m131.9 28c11.3 5.8 17 19 13 31.4-4.5 13.8-19.3 21.3-33 16.8-13.8-4.5-21.3-19.3-16.8-33 2.1-6.6 6.7-11.7 12.3-14.8" fill="#bad8ff" fill-rule="nonzero"/><path d="m131.7 28.5c.7-.9.1-2.2-1-2.2h-5.8c-2.5-32-68.6-37.2-81.3.4 9.9-11.3 22.8-20.1 49.4-16.4 6.3.9 20.2 6.3 21.4 15.9h-5.7c-1.1 0-1.8 1.3-1.1 2.2l10.5 11.7c.7.9 2 .9 2.8 0z" fill-rule="nonzero"/><g transform="translate(105 44)"><path d="m0 .1h2.9c.5 0 1 .3 1.2.8l5 12.6c.3.8 1 1.3 1.9 1.3h11.2c.8 0 1.5-.5 1.8-1.2l4-9.7c.2-.5-.2-1.1-.7-1.1h-16.5"/><circle cx="11.1" cy="20.9" r="2"/><circle cx="21.5" cy="20.9" r="2"/></g></g></svg>

<?xml version="1.0" encoding="UTF-8"?>
<svg width="150px" height="102px" viewBox="0 0 150 102" version="1.1" xmlns="http://www.w3.org/2000/svg" xmlns:xlink="http://www.w3.org/1999/xlink">
    <!-- Generator: Sketch 51.2 (57519) - http://www.bohemiancoding.com/sketch -->
    <title>Add_to_cart_2</title>
    <desc>Created with Sketch.</desc>
    <defs></defs>
    <g id="Page-1" stroke="none" stroke-width="1" fill="none" fill-rule="evenodd" stroke-linecap="round" stroke-linejoin="round">
        <g id="Add_to_cart_2" transform="translate(2.000000, 2.000000)" class="stroke-primary" stroke-width="3">
            <g id="Group" transform="translate(0.000000, 13.000000)">
                <path d="M21.7,76.7 L52.1,76.7 C52.5,77.9 53.7,78.8 55.2,78.8 L71.4,78.8 C72.8,78.8 74,77.9 74.5,76.7 L126.5,76.7 L126.5,80 C126.5,83 123.9,85.4 120.8,85.4 L5.9,85.4 C2.7,85.4 0.2,83 0.2,80 L0.2,76.7 L6.7,76.7" id="Shape" class="fill-primary-100" fill-rule="nonzero"></path>
                <path d="M14.7,76.7 L15.1,76.7" id="Shape" class="fill-primary-100" fill-rule="nonzero"></path>
                <path d="M60.1,0.7 L103.5,0.7" id="Shape"></path>
                <path d="M6.7,76.7 L6.7,4.9 C6.7,2.6 8.6,0.8 10.8,0.8 L50.9,0.8" id="Shape" class="fill-neutral" fill-rule="nonzero"></path>
                <polyline id="Shape" class="fill-neutral" fill-rule="nonzero" points="120 64.7 120 76.7 28.4 76.7"></polyline>
            </g>
            <g id="Group" transform="translate(15.000000, 31.000000)">
                <path d="M12.7,30.3 L12.7,21.7 C12.7,20.1 12.7,18.4 12.7,16.7 C7.1,19.4 6.9,19.9 5.7,18.5 C4,16.5 2.4,14.5 0.8,12.5 C1.36002321e-15,11.5 1.36002321e-15,10.8 1,10 C4.5,7.1 8,4.1 11.6,1.2 C12.2,0.7 12.9,0.4 13.8,0.4 C22,0.5 22.5,-0.2 22.8,2.3 C23.1,5.1 25.3,7 28.1,7 C30.6,6.9 32.7,4.9 32.9,2.2 C33,0.9 33.4,0.5 34.7,0.5 C37.3,0.5 39.8,0.5 42.4,0.5 C42.9,0.5 43.5,0.8 43.9,1.1 C47.5,4.1 51.1,7.1 54.7,10.1 C55.7,10.9 55.7,11.6 54.9,12.6 C53.2,14.6 51.6,16.6 49.9,18.6 C48.8,19.9 48.6,19.5 42.9,16.8 C42.9,27.1 42.9,34.3 42.9,42.2 C42.9,44 42.5,44.4 40.6,44.4 C32,44.4 23.5,44.4 14.9,44.4 C13.1,44.4 12.7,44 12.7,42.2 C12.7,40.7 12.7,39.2 12.7,37.7" id="Shape" fill="#BAD8FF" fill-rule="nonzero"></path>
                <path d="M31.9,14.2 L39.3,14.2" id="Shape"></path>
            </g>
            <path d="M76.4,40.7 L96,40.7" id="Shape"></path>
            <path d="M76.4,54.7 L94,54.7" id="Shape"></path>
            <path d="M76.4,68.7 L83.6,68.7" id="Shape"></path>
            <path d="M131.9,28 C143.2,33.8 148.9,47 144.9,59.4 C140.4,73.2 125.6,80.7 111.9,76.2 C98.1,71.7 90.6,56.9 95.1,43.2 C97.2,36.6 101.8,31.5 107.4,28.4" id="Shape" fill="#BAD8FF" fill-rule="nonzero"></path>
            <path d="M131.7,28.5 C132.4,27.6 131.8,26.3 130.7,26.3 L124.9,26.3 C122.4,-5.7 56.3,-10.9 43.6,26.7 C53.5,15.4 66.4,6.6 93,10.3 C99.3,11.2 113.2,16.6 114.4,26.2 L108.7,26.2 C107.6,26.2 106.9,27.5 107.6,28.4 L118.1,40.1 C118.8,41 120.1,41 120.9,40.1 L131.7,28.5 Z" id="Shape" class="fill-neutral" fill-rule="nonzero"></path>
            <g id="Group" transform="translate(105.000000, 44.000000)">
                <path d="M0,0.1 L2.9,0.1 C3.4,0.1 3.9,0.4 4.1,0.9 L9.1,13.5 C9.4,14.3 10.1,14.8 11,14.8 L22.2,14.8 C23,14.8 23.7,14.3 24,13.6 L28,3.9 C28.2,3.4 27.8,2.8 27.3,2.8 L10.8,2.8" id="Shape"></path>
                <circle id="Oval" cx="11.1" cy="20.9" r="2"></circle>
                <circle id="Oval" cx="21.5" cy="20.9" r="2"></circle>
            </g>
        </g>
    </g>
</svg>
